X: 1
T: NIGHT OF THE FAIR -- JIG
C: H.Carey.
B: Ryan's Mammoth Collection of Fiddle Tunes
R: jig
M: 6/8
L: 1/8
Z: Contributed 20010705002759 by John Chambers jmchambers:rcn.net
K: G
uA \
| B2A GED | EGG G2A | BGG dGG | BAA ABc \
| B2A GED | EGG G2A | BGg dBG | AEF G2 :|
|: ud \
| egg eaa | egg ged | edB AGA | BAA A2d \
| egg eaa | egg ged | dcB AcA | BGG G2 :|
